solution/ui/src/images/unit_sales.svg

<svg width="120" height="53" viewBox="0 0 120 53" fill="none" xmlns="http://www.w3.org/2000/svg">
<rect x="0.5" y="0.5" width="119" height="52" rx="7.5" stroke="#C5C5C5"/>
<path d="M29.814 22.216C29.214 22.216 28.65 22.132 28.122 21.964C27.606 21.784 27.156 21.496 26.772 21.1C26.4 20.692 26.106 20.164 25.89 19.516C25.674 18.868 25.566 18.07 25.566 17.122V10.192H27.06V17.158C27.06 17.866 27.132 18.46 27.276 18.94C27.42 19.42 27.612 19.804 27.852 20.092C28.104 20.38 28.398 20.59 28.734 20.722C29.07 20.842 29.43 20.902 29.814 20.902C30.21 20.902 30.576 20.842 30.912 20.722C31.248 20.59 31.542 20.38 31.794 20.092C32.046 19.804 32.244 19.42 32.388 18.94C32.532 18.46 32.604 17.866 32.604 17.158V10.192H34.044V17.122C34.044 18.07 33.936 18.868 33.72 19.516C33.504 20.164 33.204 20.692 32.82 21.1C32.448 21.496 32.004 21.784 31.488 21.964C30.972 22.132 30.414 22.216 29.814 22.216ZM36.6776 22V13.252H37.9016L38.0276 14.512H38.0816C38.5016 14.092 38.9396 13.744 39.3956 13.468C39.8636 13.18 40.4036 13.036 41.0156 13.036C41.9396 13.036 42.6116 13.324 43.0316 13.9C43.4636 14.476 43.6796 15.328 43.6796 16.456V22H42.2036V16.654C42.2036 15.826 42.0716 15.232 41.8076 14.872C41.5436 14.5 41.1236 14.314 40.5476 14.314C40.0916 14.314 39.6896 14.428 39.3416 14.656C38.9936 14.884 38.5976 15.22 38.1536 15.664V22H36.6776ZM46.1213 22V13.252H47.5973V22H46.1213ZM46.8773 11.452C46.5893 11.452 46.3433 11.362 46.1393 11.182C45.9473 11.002 45.8513 10.774 45.8513 10.498C45.8513 10.21 45.9473 9.982 46.1393 9.814C46.3433 9.634 46.5893 9.544 46.8773 9.544C47.1653 9.544 47.4053 9.634 47.5973 9.814C47.8013 9.982 47.9033 10.21 47.9033 10.498C47.9033 10.774 47.8013 11.002 47.5973 11.182C47.4053 11.362 47.1653 11.452 46.8773 11.452ZM52.905 22.216C52.437 22.216 52.041 22.144 51.717 22C51.405 21.856 51.147 21.658 50.943 21.406C50.751 21.154 50.613 20.848 50.529 20.488C50.445 20.128 50.403 19.732 50.403 19.3V14.458H49.107V13.342L50.475 13.252L50.655 10.804H51.897V13.252H54.255V14.458H51.897V19.318C51.897 19.858 51.993 20.278 52.185 20.578C52.389 20.866 52.743 21.01 53.247 21.01C53.403 21.01 53.571 20.986 53.751 20.938C53.931 20.89 54.093 20.836 54.237 20.776L54.525 21.892C54.285 21.976 54.021 22.048 53.733 22.108C53.457 22.18 53.181 22.216 52.905 22.216ZM62.4565 22.216C61.6285 22.216 60.8605 22.06 60.1525 21.748C59.4445 21.436 58.8325 21.01 58.3165 20.47L59.2165 19.426C59.6365 19.87 60.1285 20.23 60.6925 20.506C61.2685 20.77 61.8625 20.902 62.4745 20.902C63.2545 20.902 63.8605 20.728 64.2925 20.38C64.7245 20.02 64.9405 19.552 64.9405 18.976C64.9405 18.676 64.8865 18.424 64.7785 18.22C64.6825 18.004 64.5445 17.824 64.3645 17.68C64.1965 17.524 63.9925 17.386 63.7525 17.266C63.5125 17.146 63.2545 17.02 62.9785 16.888L61.2865 16.15C61.0105 16.03 60.7285 15.886 60.4405 15.718C60.1525 15.55 59.8945 15.346 59.6665 15.106C59.4385 14.866 59.2525 14.584 59.1085 14.26C58.9645 13.924 58.8925 13.54 58.8925 13.108C58.8925 12.664 58.9825 12.25 59.1625 11.866C59.3545 11.482 59.6125 11.152 59.9365 10.876C60.2725 10.588 60.6625 10.366 61.1065 10.21C61.5625 10.054 62.0605 9.976 62.6005 9.976C63.3085 9.976 63.9625 10.114 64.5625 10.39C65.1625 10.654 65.6725 11.002 66.0925 11.434L65.2825 12.406C64.9225 12.058 64.5205 11.788 64.0765 11.596C63.6445 11.392 63.1525 11.29 62.6005 11.29C61.9405 11.29 61.4065 11.446 60.9985 11.758C60.6025 12.058 60.4045 12.478 60.4045 13.018C60.4045 13.306 60.4585 13.552 60.5665 13.756C60.6865 13.948 60.8425 14.122 61.0345 14.278C61.2265 14.422 61.4365 14.554 61.6645 14.674C61.8925 14.782 62.1265 14.884 62.3665 14.98L64.0405 15.7C64.3765 15.844 64.6945 16.012 64.9945 16.204C65.2945 16.384 65.5525 16.6 65.7685 16.852C65.9845 17.092 66.1525 17.38 66.2725 17.716C66.4045 18.04 66.4705 18.418 66.4705 18.85C66.4705 19.318 66.3745 19.756 66.1825 20.164C66.0025 20.572 65.7385 20.932 65.3905 21.244C65.0425 21.544 64.6225 21.784 64.1305 21.964C63.6385 22.132 63.0805 22.216 62.4565 22.216ZM70.2678 22.216C69.5358 22.216 68.9238 22 68.4318 21.568C67.9518 21.136 67.7118 20.524 67.7118 19.732C67.7118 18.772 68.1378 18.04 68.9898 17.536C69.8418 17.02 71.2038 16.66 73.0758 16.456C73.0758 16.18 73.0458 15.91 72.9858 15.646C72.9378 15.382 72.8478 15.148 72.7158 14.944C72.5838 14.74 72.3978 14.578 72.1578 14.458C71.9298 14.326 71.6358 14.26 71.2758 14.26C70.7718 14.26 70.2978 14.356 69.8538 14.548C69.4098 14.74 69.0138 14.956 68.6658 15.196L68.0898 14.17C68.4978 13.906 68.9958 13.654 69.5838 13.414C70.1718 13.162 70.8198 13.036 71.5278 13.036C72.5958 13.036 73.3698 13.366 73.8498 14.026C74.3298 14.674 74.5698 15.544 74.5698 16.636V22H73.3458L73.2198 20.956H73.1658C72.7458 21.304 72.2958 21.604 71.8158 21.856C71.3358 22.096 70.8198 22.216 70.2678 22.216ZM70.6998 21.028C71.1198 21.028 71.5158 20.932 71.8878 20.74C72.2598 20.536 72.6558 20.242 73.0758 19.858V17.428C72.3438 17.524 71.7258 17.638 71.2218 17.77C70.7298 17.902 70.3278 18.058 70.0158 18.238C69.7158 18.418 69.4938 18.628 69.3498 18.868C69.2178 19.096 69.1518 19.348 69.1518 19.624C69.1518 20.128 69.3018 20.488 69.6018 20.704C69.9018 20.92 70.2678 21.028 70.6998 21.028ZM78.4881 22.216C77.9241 22.216 77.5221 22.048 77.2821 21.712C77.0421 21.376 76.9221 20.884 76.9221 20.236V9.184H78.3981V20.344C78.3981 20.584 78.4401 20.752 78.5241 20.848C78.6081 20.944 78.7041 20.992 78.8121 20.992C78.8601 20.992 78.9021 20.992 78.9381 20.992C78.9861 20.992 79.0521 20.98 79.1361 20.956L79.3341 22.072C79.2381 22.12 79.1241 22.156 78.9921 22.18C78.8601 22.204 78.6921 22.216 78.4881 22.216ZM84.656 22.216C84.068 22.216 83.516 22.114 83 21.91C82.496 21.694 82.052 21.394 81.668 21.01C81.296 20.614 81.002 20.134 80.786 19.57C80.57 19.006 80.462 18.364 80.462 17.644C80.462 16.924 80.57 16.282 80.786 15.718C81.014 15.142 81.308 14.656 81.668 14.26C82.04 13.864 82.46 13.564 82.928 13.36C83.396 13.144 83.882 13.036 84.386 13.036C84.938 13.036 85.43 13.132 85.862 13.324C86.306 13.516 86.672 13.792 86.96 14.152C87.26 14.512 87.488 14.944 87.644 15.448C87.8 15.952 87.878 16.516 87.878 17.14C87.878 17.296 87.872 17.452 87.86 17.608C87.86 17.752 87.848 17.878 87.824 17.986H81.92C81.98 18.922 82.268 19.666 82.784 20.218C83.312 20.758 83.996 21.028 84.836 21.028C85.256 21.028 85.64 20.968 85.988 20.848C86.348 20.716 86.69 20.548 87.014 20.344L87.536 21.316C87.152 21.556 86.726 21.766 86.258 21.946C85.79 22.126 85.256 22.216 84.656 22.216ZM81.902 16.924H86.582C86.582 16.036 86.39 15.364 86.006 14.908C85.634 14.44 85.106 14.206 84.422 14.206C84.11 14.206 83.81 14.266 83.522 14.386C83.246 14.506 82.994 14.686 82.766 14.926C82.538 15.154 82.346 15.436 82.19 15.772C82.046 16.108 81.95 16.492 81.902 16.924ZM91.9257 22.216C91.3017 22.216 90.7077 22.102 90.1437 21.874C89.5797 21.646 89.0877 21.358 88.6677 21.01L89.4057 20.02C89.7897 20.332 90.1797 20.584 90.5757 20.776C90.9837 20.968 91.4517 21.064 91.9797 21.064C92.5557 21.064 92.9877 20.932 93.2757 20.668C93.5637 20.404 93.7077 20.08 93.7077 19.696C93.7077 19.468 93.6477 19.27 93.5277 19.102C93.4077 18.934 93.2517 18.79 93.0597 18.67C92.8797 18.538 92.6697 18.424 92.4297 18.328C92.1897 18.232 91.9497 18.136 91.7097 18.04C91.3977 17.932 91.0857 17.812 90.7737 17.68C90.4617 17.536 90.1797 17.368 89.9277 17.176C89.6877 16.972 89.4897 16.738 89.3337 16.474C89.1777 16.21 89.0997 15.892 89.0997 15.52C89.0997 15.172 89.1657 14.848 89.2977 14.548C89.4417 14.236 89.6397 13.972 89.8917 13.756C90.1557 13.528 90.4737 13.354 90.8457 13.234C91.2177 13.102 91.6377 13.036 92.1057 13.036C92.6577 13.036 93.1617 13.132 93.6177 13.324C94.0857 13.516 94.4877 13.75 94.8237 14.026L94.1217 14.962C93.8217 14.734 93.5097 14.548 93.1857 14.404C92.8617 14.26 92.5077 14.188 92.1237 14.188C91.5717 14.188 91.1637 14.314 90.8997 14.566C90.6477 14.818 90.5217 15.112 90.5217 15.448C90.5217 15.652 90.5757 15.832 90.6837 15.988C90.7917 16.132 90.9357 16.264 91.1157 16.384C91.2957 16.492 91.4997 16.594 91.7277 16.69C91.9677 16.774 92.2137 16.864 92.4657 16.96C92.7777 17.08 93.0897 17.206 93.4017 17.338C93.7257 17.47 94.0137 17.638 94.2657 17.842C94.5177 18.034 94.7217 18.274 94.8777 18.562C95.0457 18.85 95.1297 19.198 95.1297 19.606C95.1297 19.966 95.0577 20.302 94.9137 20.614C94.7817 20.926 94.5777 21.202 94.3017 21.442C94.0377 21.682 93.7017 21.868 93.2937 22C92.8977 22.144 92.4417 22.216 91.9257 22.216Z" fill="#1B1E29"/>
<path d="M18 36L101.5 36.5" stroke="#00518B" stroke-width="2" stroke-linecap="square"/>
<rect x="55" y="31" width="10" height="10" fill="#00518B"/>
</svg>

<svg fill="none" height="53" viewBox="0 0 120 53" width="120" xmlns="http://www.w3.org/2000/svg"><rect height="52" rx="7.5" stroke="#c5c5c5" width="119" x=".5" y=".5"/><path d="m29.814 22.216c-.6 0-1.164-.084-1.692-.252-.516-.18-.966-.468-1.35-.864-.372-.408-.666-.936-.882-1.584s-.324-1.446-.324-2.394v-6.93h1.494v6.966c0 .708.072 1.302.216 1.782s.336.864.576 1.152c.252.288.546.498.882.63.336.12.696.18 1.08.18.396 0 .762-.06 1.098-.18.336-.132.63-.342.882-.63s.45-.672.594-1.152.216-1.074.216-1.782v-6.966h1.44v6.93c0 .948-.108 1.746-.324 2.394s-.516 1.176-.9 1.584c-.372.396-.816.684-1.332.864-.516.168-1.074.252-1.674.252zm6.8636-.216v-8.748h1.224l.126 1.26h.054c.42-.42.858-.768 1.314-1.044.468-.288 1.008-.432 1.62-.432.924 0 1.596.288 2.016.864.432.576.648 1.428.648 2.556v5.544h-1.476v-5.346c0-.828-.132-1.422-.396-1.782-.264-.372-.684-.558-1.26-.558-.456 0-.858.114-1.206.342s-.744.564-1.188 1.008v6.336zm9.4437 0v-8.748h1.476v8.748zm.756-10.548c-.288 0-.534-.09-.738-.27-.192-.18-.288-.408-.288-.684 0-.288.096-.516.288-.684.204-.18.45-.27.738-.27s.528.09.72.27c.204.168.306.396.306.684 0 .276-.102.504-.306.684-.192.18-.432.27-.72.27zm6.0277 10.764c-.468 0-.864-.072-1.188-.216-.312-.144-.57-.342-.774-.594-.192-.252-.33-.558-.414-.918s-.126-.756-.126-1.188v-4.842h-1.296v-1.116l1.368-.09.18-2.448h1.242v2.448h2.358v1.206h-2.358v4.86c0 .54.096.96.288 1.26.204.288.558.432 1.062.432.156 0 .324-.024.504-.072s.342-.102.486-.162l.288 1.116c-.24.084-.504.156-.792.216-.276.072-.552.108-.828.108zm9.5515 0c-.828 0-1.596-.156-2.304-.468s-1.32-.738-1.836-1.278l.9-1.044c.42.444.912.804 1.476 1.08.576.264 1.17.396 1.782.396.78 0 1.386-.174 1.818-.522.432-.36.648-.828.648-1.404 0-.3-.054-.552-.162-.756-.096-.216-.234-.396-.414-.54-.168-.156-.372-.294-.612-.414s-.498-.246-.774-.378l-1.692-.738c-.276-.12-.558-.264-.846-.432s-.546-.372-.774-.612-.414-.522-.558-.846c-.144-.336-.216-.72-.216-1.152 0-.444.09-.858.27-1.242.192-.384.45-.714.774-.99.336-.288.726-.51 1.17-.666.456-.156.954-.234 1.494-.234.708 0 1.362.138 1.962.414.6.264 1.11.612 1.53 1.044l-.81.972c-.36-.348-.762-.618-1.206-.81-.432-.204-.924-.306-1.476-.306-.66 0-1.194.156-1.602.468-.396.3-.594.72-.594 1.26 0 .288.054.534.162.738.12.192.276.366.468.522.192.144.402.276.63.396.228.108.462.21.702.306l1.674.72c.336.144.654.312.954.504.3.18.558.396.774.648.216.24.384.528.504.864.132.324.198.702.198 1.134 0 .468-.096.906-.288 1.314-.18.408-.444.768-.792 1.08-.348.3-.768.54-1.26.72-.492.168-1.05.252-1.674.252zm7.8113 0c-.732 0-1.344-.216-1.836-.648-.48-.432-.72-1.044-.72-1.836 0-.96.426-1.692 1.278-2.196.852-.516 2.214-.876 4.086-1.08 0-.276-.03-.546-.09-.81-.048-.264-.138-.498-.27-.702s-.318-.366-.558-.486c-.228-.132-.522-.198-.882-.198-.504 0-.978.096-1.422.288s-.84.408-1.188.648l-.576-1.026c.408-.264.906-.516 1.494-.756.588-.252 1.236-.378 1.944-.378 1.068 0 1.842.33 2.322.99.48.648.72 1.518.72 2.61v5.364h-1.224l-.126-1.044h-.054c-.42.348-.87.648-1.35.9-.48.24-.996.36-1.548.36zm.432-1.188c.42 0 .816-.096 1.188-.288.372-.204.768-.498 1.188-.882v-2.43c-.732.096-1.35.21-1.854.342-.492.132-.894.288-1.206.468-.3.18-.522.39-.666.63-.132.228-.198.48-.198.756 0 .504.15.864.45 1.08s.666.324 1.098.324zm7.7883 1.188c-.564 0-.966-.168-1.206-.504s-.36-.828-.36-1.476v-11.052h1.476v11.16c0 .24.042.408.126.504s.18.144.288.144h.126c.048 0 .114-.012.198-.036l.198 1.116c-.096.048-.21.084-.342.108s-.3.036-.504.036zm6.1679 0c-.588 0-1.14-.102-1.656-.306-.504-.216-.948-.516-1.332-.9-.372-.396-.666-.876-.882-1.44s-.324-1.206-.324-1.926.108-1.362.324-1.926c.228-.576.522-1.062.882-1.458.372-.396.792-.696 1.26-.9.468-.216.954-.324 1.458-.324.552 0 1.044.096 1.476.288.444.192.81.468 1.098.828.3.36.528.792.684 1.296s.234 1.068.234 1.692c0 .156-.006.312-.018.468 0 .144-.012.27-.036.378h-5.904c.06.936.348 1.68.864 2.232.528.54 1.212.81 2.052.81.42 0 .804-.06 1.152-.18.36-.132.702-.3 1.026-.504l.522.972c-.384.24-.81.45-1.278.63s-1.002.27-1.602.27zm-2.754-5.292h4.68c0-.888-.192-1.56-.576-2.016-.372-.468-.9-.702-1.584-.702-.312 0-.612.06-.9.18-.276.12-.528.3-.756.54-.228.228-.42.51-.576.846-.144.336-.24.72-.288 1.152zm10.0237 5.292c-.624 0-1.218-.114-1.782-.342s-1.056-.516-1.476-.864l.738-.99c.384.312.774.564 1.17.756.408.192.876.288 1.404.288.576 0 1.008-.132 1.296-.396s.432-.588.432-.972c0-.228-.06-.426-.18-.594s-.276-.312-.468-.432c-.18-.132-.39-.246-.63-.342s-.48-.192-.72-.288c-.312-.108-.624-.228-.936-.36-.312-.144-.594-.312-.846-.504-.24-.204-.438-.438-.594-.702s-.234-.582-.234-.954c0-.348.066-.672.198-.972.144-.312.342-.576.594-.792.264-.228.582-.402.954-.522.372-.132.792-.198 1.26-.198.552 0 1.056.096 1.512.288.468.192.87.426 1.206.702l-.702.936c-.3-.228-.612-.414-.936-.558s-.678-.216-1.062-.216c-.552 0-.96.126-1.224.378-.252.252-.378.546-.378.882 0 .204.054.384.162.54.108.144.252.276.432.396.18.108.384.21.612.306.24.084.486.174.738.27.312.12.624.246.936.378.324.132.612.3.864.504.252.192.456.432.612.72.168.288.252.636.252 1.044 0 .36-.072.696-.216 1.008-.132.312-.336.588-.612.828-.264.24-.6.426-1.008.558-.396.144-.852.216-1.368.216z" fill="#1b1e29"/><path d="m18 36 83.5.5" stroke="#00518b" stroke-linecap="square" stroke-width="2"/><path d="m55 31h10v10h-10z" fill="#00518b"/></svg>
